assets/images/icons/cycling.svg

<svg width="32" height="32" viewBox="0 0 32 32" fill="none" xmlns="http://www.w3.org/2000/svg">
<path opacity="0.1" d="M0.223155 23.1618C-0.0589054 20.752 -0.098086 18.3874 0.248062 16.248C0.673696 13.6174 1.78493 10.6909 2.99894 8.07362C5.37163 2.95839 9.61911 1.16885 14.7912 0.362065C22.0007 -0.762522 31.9372 0.362091 32 9.08714C31.6383 12.2073 29.2517 20.8815 21.1951 21.5434C18.5313 21.7622 17.5348 24.4378 16.3612 27.5006C13.2729 35.5602 1.25575 31.9835 0.223155 23.1618Z" fill="#7FB51F"/>
<path d="M10.856 24.1588C10.2881 24.5956 9.58614 24.8658 8.81587 24.8658C6.95962 24.8658 5.44915 23.3554 5.44915 21.4991C5.44915 19.6425 6.95962 18.132 8.81587 18.132C10.2168 18.132 11.4184 18.9934 11.925 20.2132L12.9792 19.1198C12.149 17.6707 10.6056 16.6829 8.81587 16.6829C6.15572 16.6829 4 18.8391 4 21.4991C4 24.1588 6.15572 26.315 8.81587 26.315C10.0674 26.315 11.1966 25.8258 12.0533 25.0428C11.7245 24.9324 11.4127 24.7574 11.1462 24.5008C11.0363 24.3946 10.9414 24.2785 10.856 24.1588Z" fill="#7FB51F"/>
<path d="M18.1679 16.7196L15.6178 15.2384C16.755 14.5266 16.3333 14.7902 17.4706 14.0784L17.4348 14.4407C17.3735 15.0573 17.8279 15.6215 18.3999 15.7375C18.4136 15.7403 22.8766 16.4988 23.0394 16.4988C23.6191 16.4988 24.131 16.08 24.229 15.4889C24.3385 14.8308 23.8937 14.209 23.2356 14.1001L19.95 13.5543L20.1062 11.9864C20.2637 10.9844 20.3321 10.6703 19.958 10.0725L19.4877 9.32061C18.8801 8.35022 17.5989 8.0535 16.6262 8.66251L11.4788 11.8853C10.2145 12.6769 9.59801 14.3459 10.6302 15.5737C11.0334 16.0535 14.9539 18.4627 14.9539 18.4627L11.7787 21.7562C11.223 22.3322 11.2395 23.2497 11.816 23.8049C12.0971 24.0761 12.4594 24.211 12.8217 24.211C13.2015 24.211 13.5807 24.063 13.8647 23.7676L18.4829 18.9783C19.1344 18.3041 18.9816 17.1922 18.1679 16.7196Z" fill="#7FB51F"/>
<path d="M23.5775 10.1409C24.7064 9.43378 25.0484 7.94592 24.3417 6.81756C23.6351 5.68823 22.1472 5.34623 21.0185 6.0529C19.89 6.75957 19.548 8.24689 20.2543 9.37525C20.9608 10.5046 22.4487 10.8471 23.5775 10.1409Z" fill="#7FB51F"/>
<path d="M23.1831 16.6829C20.4952 16.6829 18.3672 18.9004 18.3672 21.4991C18.3672 24.1588 20.523 26.315 23.1831 26.315C25.8426 26.315 27.999 24.1588 27.999 21.4991C27.999 18.8391 25.8426 16.6829 23.1831 16.6829ZM23.1831 24.8658C21.3268 24.8658 19.8163 23.3554 19.8163 21.4991C19.8163 19.6425 21.3269 18.132 23.1831 18.132C25.0394 18.132 26.5498 19.6425 26.5498 21.4991C26.5499 23.3554 25.0394 24.8658 23.1831 24.8658Z" fill="#7FB51F"/>
</svg>

<svg xmlns="http://www.w3.org/2000/svg" width="32" height="32" fill="none"><path fill="#7FB51F" d="M.223 23.162c-.282-2.41-.321-4.775.025-6.914.426-2.63 1.537-5.557 2.75-8.174C5.373 2.958 9.62 1.169 14.792.362 22.001-.763 31.937.362 32 9.087c-.362 3.12-2.748 11.795-10.805 12.456-2.664.22-3.66 2.895-4.834 5.958-3.088 8.06-15.105 4.482-16.138-4.34" opacity=".1"/><path fill="#7FB51F" d="M10.856 24.159a3.33 3.33 0 0 1-2.04.707 3.37 3.37 0 0 1-3.367-3.367 3.37 3.37 0 0 1 3.367-3.367c1.4 0 2.602.861 3.109 2.081l1.054-1.093c-.83-1.45-2.373-2.437-4.163-2.437a4.816 4.816 0 1 0 0 9.632c1.251 0 2.38-.49 3.237-1.272a2.4 2.4 0 0 1-.907-.542 2.5 2.5 0 0 1-.29-.342"/><path fill="#7FB51F" d="m18.168 16.72-2.55-1.482 1.853-1.16-.036.363c-.061.616.393 1.18.965 1.297.014.002 4.477.76 4.64.76a1.208 1.208 0 0 0 .196-2.398l-3.286-.546.156-1.568c.158-1.002.226-1.316-.148-1.914l-.47-.751a2.077 2.077 0 0 0-2.862-.658l-5.147 3.222c-1.264.792-1.881 2.46-.849 3.689.403.48 4.324 2.889 4.324 2.889l-3.175 3.293a1.448 1.448 0 1 0 2.086 2.012l4.618-4.79a1.45 1.45 0 0 0-.315-2.258m5.41-6.58a2.411 2.411 0 1 0-2.56-4.087 2.411 2.411 0 0 0 2.56 4.088"/><path fill="#7FB51F" d="M23.183 16.683c-2.688 0-4.816 2.217-4.816 4.816a4.816 4.816 0 1 0 4.816-4.816m0 8.183a3.37 3.37 0 0 1-3.367-3.367 3.37 3.37 0 0 1 3.367-3.367 3.37 3.37 0 0 1 3.367 3.367 3.37 3.37 0 0 1-3.367 3.367"/></svg>
